img/dpg.svg

<svg fill="none" height="70" viewBox="0 0 140 70" width="140" xmlns="http://www.w3.org/2000/svg"><path d="m111.053 67.1644h-97.5152l-10.90499-21.045.24-.51 19.96499-42.48001h97.4252l10.875 21.10501zm-96.1502-2.25h94.7102l19.02-40.62-9.735-18.90001h-94.6202l-19.13999 40.68001z" fill="#2c269a"/><path d="m111.053 67.1644h-97.5152l-10.90499-21.045.24-.51 19.96499-42.48001h97.4252l10.875 21.10501zm-96.1502-2.25h94.7102l19.02-40.62-9.735-18.90001h-94.6202l-19.13999 40.68001z" fill="#82dbe1"/><path d="m22.8387 3.13062h96.0603l9.735 21.14998-19.02 40.635h-94.7103l-9.76503-18.84z" fill="#82dbe1"/><g fill="#2c269a"><path d="m27.8486 23.3975h6.165c6.21 0 11.28 5.04 11.28 11.28s-5.07 11.28-11.28 11.28h-6.165zm6.135 20.16c5.01 0 8.91-3.795 8.91-8.88s-3.9-8.88-8.91-8.88h-3.765v17.745h3.765z"/><path d="m64.2684 29.6675c0 3.495-2.79 6.24-6.285 6.24h-5.685v10.05h-2.4v-22.56h8.085c3.495 0 6.285 2.82 6.285 6.27zm-2.4.045c0-2.4-1.845-3.99-4.095-3.99h-5.46v7.905h5.46c2.25 0 4.095-1.44 4.095-3.915z"/><path d="m90.0389 34.0027v.675c0 6.39-5.19 11.58-11.58 11.58-6.435 0-11.58-5.19-11.58-11.58s5.16-11.58 11.58-11.58c4.32 0 8.085 2.37 10.035 5.865l-2.07 1.17c-1.545-2.79-4.545-4.62-7.965-4.62-5.085 0-9.18 4.065-9.18 9.18s4.095 9.18 9.18 9.18c4.545 0 8.31-3.24 9.03-7.605h-9.06v-2.25h11.61z"/><path d="m131.782 16.8542h-29.88v29.88h29.88z"/><path d="m137.185 26.2056-25.876-14.94-14.9404 25.8761 25.8764 14.94z"/><path d="m122.249 11.2629-25.876 14.94 14.94 25.8761 25.876-14.94z"/></g><path d="m109.283 32.0187 5.67 5.67 11.04-11.04" stroke="#fff" stroke-miterlimit="10" stroke-width="1.5"/></svg>

<svg width="140" height="70" viewBox="0 0 140 70" fill="none" xmlns="http://www.w3.org/2000/svg">
<path d="M111.053 67.1644H13.5378L2.63281 46.1194L2.87281 45.6094L22.8378 3.12939H120.263L131.138 24.2344L111.053 67.1644ZM14.9028 64.9144H109.613L128.633 24.2944L118.898 5.39439H24.2778L5.13781 46.0744L14.9028 64.9144Z" fill="#2C269A"/>
<path d="M111.053 67.1644H13.5378L2.63281 46.1194L2.87281 45.6094L22.8378 3.12939H120.263L131.138 24.2344L111.053 67.1644ZM14.9028 64.9144H109.613L128.633 24.2944L118.898 5.39439H24.2778L5.13781 46.0744L14.9028 64.9144Z" fill="#82DBE1"/>
<path d="M22.8387 3.13062H118.899L128.634 24.2806L109.614 64.9156H14.9037L5.13867 46.0756L22.8387 3.13062Z" fill="#82DBE1"/>
<path d="M27.8486 23.3975H34.0136C40.2236 23.3975 45.2936 28.4375 45.2936 34.6775C45.2936 40.9175 40.2236 45.9575 34.0136 45.9575H27.8486V23.3975ZM33.9836 43.5575C38.9936 43.5575 42.8936 39.7625 42.8936 34.6775C42.8936 29.5925 38.9936 25.7975 33.9836 25.7975H30.2186V43.5425H33.9836V43.5575Z" fill="#2C269A"/>
<path d="M64.2684 29.6675C64.2684 33.1625 61.4784 35.9075 57.9834 35.9075H52.2984V45.9575H49.8984V23.3975H57.9834C61.4784 23.3975 64.2684 26.2175 64.2684 29.6675ZM61.8684 29.7125C61.8684 27.3125 60.0234 25.7225 57.7734 25.7225H52.3134V33.6275H57.7734C60.0234 33.6275 61.8684 32.1875 61.8684 29.7125Z" fill="#2C269A"/>
<path d="M90.0389 34.0027V34.6777C90.0389 41.0677 84.8489 46.2577 78.4589 46.2577C72.0239 46.2577 66.8789 41.0677 66.8789 34.6777C66.8789 28.2877 72.0389 23.0977 78.4589 23.0977C82.7789 23.0977 86.5439 25.4677 88.4939 28.9627L86.4239 30.1327C84.8789 27.3427 81.8789 25.5127 78.4589 25.5127C73.3739 25.5127 69.2789 29.5777 69.2789 34.6927C69.2789 39.8077 73.3739 43.8727 78.4589 43.8727C83.0039 43.8727 86.7689 40.6327 87.4889 36.2677H78.4289V34.0177H90.0389V34.0027Z" fill="#2C269A"/>
<path d="M131.782 16.8542H101.902V46.7342H131.782V16.8542Z" fill="#2C269A"/>
<path d="M137.185 26.2056L111.309 11.2656L96.3686 37.1417L122.245 52.0817L137.185 26.2056Z" fill="#2C269A"/>
<path d="M122.249 11.2629L96.373 26.2029L111.313 52.079L137.189 37.139L122.249 11.2629Z" fill="#2C269A"/>
<path d="M109.283 32.0187L114.953 37.6887L125.993 26.6487" stroke="white" stroke-width="1.5" stroke-miterlimit="10"/>
</svg>
